X:97
T:Paddy Cary. RH.097
R:Jig
S:Rev.R.Harrison’s MS,c1815,Cumbria
N:No C music.
O:England
A:Temple Sowerby,Cumbria
Z:vmp.Simon Wilson. Review PJH, 2008.
M:6/8
L:1/8
Q:3/8=120
K:C
G2c {d}cBc|e2c {d}cBc|A2dd2e|fdc BAG|!
G2c {d}cBc|e2c {d}cBc|BAG GBc|cde d2c:|!
|:c2e fa2|g2a gec|c2e fa2|gec d3|!
c2e f2a|g2a gec|BAG GBc|cde d3:|

